X:27
T: Justin Otter
C:John Krumm
R: Schottische
M:4/4
Z:SG
K:D
(3ABcW||"D"d>c d>cd2A2|"G"B2d2g3g|"D"f>g a>f g>f e>d|"E7"e>f e>d "A7"e>A B>c|
"D"d>c d>cd2A2|"G"B2d2g3g|"D"f>g a>f "A7"g>A B>c|"D"d2f2"Fine"d2:|
c2|"Bm"B4 F4|B>c d>B F4|B2 c2 d2 e2|"F#7"f3g f>e d>c|
"Bm"B4 F4|B>c d>B F4|"Em"G4 E2G2|"F#7"F2 F>G F>E D>C|
"Bm"B,2B2 F4|B>c d>B F4|B2c2d2e2|"F#7"f2f>g f>e d>c|
"Bm"B4 F4|B>c d>B F4|"A7"A3^GA3G|A2 ^A2 "D.S. al Fine"B2 c2||
